!!!COM: Vivaldi, Antonio
!!!OTL: Concerto a violino solo, No. 10
!!!XEN: Violin Concerto No. 10
!!!OTP: La Caccia
!!!OTA: The Hunt
!!!OPR: Il Cimento dell'armonia e dell'inventione
!!!XEN: The Contest of Harmony and Invention
!!!OPS: Opus 8
!!!ONM: No. 10
!!!OMV: Movement 3.
!!!YEC: Copyright 1996, Center for Computer Assisted Research in the Humanities
!!!YEM: Rights to all derivative electronic formats reserved.
!!!YEM: Refer to licensing agreement for important restrictions.
!!!OMD: Allegro
**kern	**kern	**kern	**kern	**kern	**Bnum
*Icello	*Iviola	*Ivioln	*Ivioln	*Ivioln	*Icemba
*Icemba	*	*	*	*	*
*ICstr	*ICstr	*ICstr	*ICstr	*ICstr	*ICklav
*ICklav	*	*	*	*	*
!cello	!viola 	!violino 2 	!violino 1	!violino principale	!continuo
!basso continuo	!	!	!	!	!
*clefF4	*clefC3	*clefG2	*clefG2	*clefG2	*
*k[b-e-]	*k[b-e-]	*k[b-e-]	*k[b-e-]	*k[b-e-]	*k[b-e-]
*B-:	*B-:	*B-:	*B-:	*B-:	*B-:
*M3/8	*M3/8	*M3/8	*M3/8	*M3/8	*M3/8
*>Selfridge-Field[etc1,S10,etc2,S36,etc3,S112,etc4,S144,etc5]	*>Selfridge-Field[etc1,S10,etc2,S36,etc3,S112,etc4,S144,etc5]	*>Selfridge-Field[etc1,S10,etc2,S36,etc3,S112,etc4,S144,etc5]	*>Selfridge-Field[etc1,S10,etc2,S36,etc3,S112,etc4,S144,etc5]	*>Selfridge-Field[etc1,S10,etc2,S36,etc3,S112,etc4,S144,etc5]	*>Selfridge-Field[etc1,S10,etc2,S36,etc3,S112,etc4,S144,etc5]
*>Amsterdam[etc1,A10,etc2,S36,etc3,S112,etc4,A144,etc5]	*>Amsterdam[etc1,A10,etc2,S36,etc3,S112,etc4,A144,etc5]	*>Amsterdam[etc1,A10,etc2,S36,etc3,S112,etc4,A144,etc5]	*>Amsterdam[etc1,A10,etc2,S36,etc3,S112,etc4,A144,etc5]	*>Amsterdam[etc1,A10,etc2,S36,etc3,S112,etc4,A144,etc5]	*>Amsterdam[etc1,A10,etc2,S36,etc3,S112,etc4,A144,etc5]
*>Dresden[etc1,S10,etc2,D36,etc3,T112,etc4,S144,etc5]	*>Dresden[etc1,S10,etc2,D36,etc3,T112,etc4,S144,etc5]	*>Dresden[etc1,S10,etc2,D36,etc3,T112,etc4,S144,etc5]	*>Dresden[etc1,S10,etc2,D36,etc3,T112,etc4,S144,etc5]	*>Dresden[etc1,S10,etc2,D36,etc3,T112,etc4,S144,etc5]	*>Dresden[etc1,S10,etc2,D36,etc3,T112,etc4,S144,etc5]
*>Turin[etc1,S10,etc2,S36,etc3,T112,etc4,S144,etc5]	*>Turin[etc1,S10,etc2,S36,etc3,T112,etc4,S144,etc5]	*>Turin[etc1,S10,etc2,S36,etc3,T112,etc4,S144,etc5]	*>Turin[etc1,S10,etc2,S36,etc3,T112,etc4,S144,etc5]	*>Turin[etc1,S10,etc2,S36,etc3,T112,etc4,S144,etc5]	*>Turin[etc1,S10,etc2,S36,etc3,T112,etc4,S144,etc5]
*>etc1	*>etc1	*>etc1	*>etc1	*>etc1	*>etc1
=1-	=1-	=1-	=1-	=1-	=1-
8B-\L	8f\L	(16b-\LL	(16b-\LL	(16b-\LL	.
.	.	16dd\J	16dd\J	16dd\J	.
16d\L	16f\L	8ff\)	8ff\)	8ff\)	6
16c\J	16e-\J	.	.	.	.
8B-\J	8d\J	8bb-\J	8bb-\J	8bb-\J	.
=2	=2	=2	=2	=2	=2
8BB-/L	8d\L	8b-/L	8b-/L	8b-/L	.
16D/L	16f\L	8f/	8f/	8f/	6
16C/J	16e-\J	.	.	.	.
8BB-/J	8d\J	8B-/J	8B-/J	8B-/J	.
=3	=3	=3	=3	=3	=3
8B-\L	8f\L	(16b-\LL	(16b-\LL	(16b-\LL	.
.	.	16dd\J	16dd\J	16dd\J	.
16d\L	16f\L	8ff\)	8ff\)	8ff\)	6
16c\J	16e-\J	.	.	.	.
8B-\J	8d\J	8bb-\J	8bb-\J	8bb-\J	.
=4	=4	=4	=4	=4	=4
8BB-/L	8d\L	8b-/L	8b-/L	8b-/L	.
16D/L	16f\L	8f/	8f/	8f/	6
16C/J	16e-\J	.	.	.	.
8BB-/J	8d\J	8B-/J	8B-/J	8B-/J	.
=5	=5	=5	=5	=5	=5
8B-\L	8b-\L	8b-/L	8b-/L	8b-/L	.
16A\L	16a\L	16a/L	16a/L	16a/L	.
16G\	16g\	16g/	16g/	16g/	.
16F\	16f\	16f/	16f/	16f/	.
16E-\JJ	16e-\JJ	16e-/JJ	16e-/JJ	16e-/JJ	.
=6	=6	=6	=6	=6	=6
8D/L	8d\L	8d/L	8d/L	8d/L	6
8C/	8c\	8c/	8c/	8c/	6
8BB-/J	8B-\J	8B-/J	8B-/J	8B-/J	.
=7	=7	=7	=7	=7	=7
8B-\L	8f\L	(16b-\LL	(16b-\LL	(16b-\LL	.
.	.	16dd\J	16dd\J	16dd\J	.
16d\L	16f\L	8ff\)	8ff\)	8ff\)	6
16c\J	16e-\J	.	.	.	.
8B-\J	8d\J	8bb-\J	8bb-\J	8bb-\J	.
=8	=8	=8	=8	=8	=8
8BB-/L	8d\L	8b-/L	8b-/L	8b-/L	.
16D/L	16f\L	8f/	8f/	8f/	6
16C/J	16e-\J	.	.	.	.
8BB-/J	8d\J	8B-/J	8B-/J	8B-/J	.
=9	=9	=9	=9	=9	=9
8B-\L	8f\L	(16b-\LL	(16b-\LL	(16b-\LL	.
.	.	16dd\J	16dd\J	16dd\J	.
16d\L	16f\L	8ff\)	8ff\)	8ff\)	6
16c\J	16e-\J	.	.	.	.
8B-\J	8d\J	8bb-\J	8bb-\J	8bb-\J	.
=10	=10	=10	=10	=10	=10
8BB-/L	8d\L	8b-/L	8b-/L	8b-/L	.
16D/L	16f\L	8f/	8f/	8f/	6
16C/J	16e-\J	.	.	.	.
8BB-/J	8d\J	8B-/J	8B-/J	8B-/J	.
*>S10	*>S10	*>S10	*>S10	*>S10	*>S10
!! Selfridge-Field edition.
=11	=11	=11	=11	=11	=11
8f\L	8f\L	8ff\L	8ff\L	8ff\L	.
16e-\L	16e-\L	16ee-\L	16ee-\L	16ee-\L	.
16d\	16d\	16dd\	16dd\	16dd\	.
16c\	16c\	16cc\	16cc\	16cc\	.
16B-\JJ	16B-\JJ	16b-\JJ	16b-\JJ	16b-\JJ	.
=12	=12	=12	=12	=12	=12
8F\L	4.f\	4.f/	4.f/	4.f/	.
16A\L	.	.	.	.	6
16G\J	.	.	.	.	.
8F\J	.	.	.	.	.
*>A10	*>A10	*>A10	*>A10	*>A10	*>A10
!! Amsterdam print.
=11	=11	=11	=11	=11	=11
8F\L	8f\L	8ff\L	8ff\L	8ff\L	.
16E-\L	16e-\L	16ee-\L	16ee-\L	16ee-\L	.
16D\	16d\	16dd\	16dd\	16dd\	.
16C\	16c\	16cc\	16cc\	16cc\	.
16b-\JJ	16B-\JJ	16b-\JJ	16b-\JJ	16b-\JJ	.
=12	=12	=12	=12	=12	=12
8FF\L	4.f\	4.f/	4.f/	4.f/	.
16AA\L	.	.	.	.	6
16GG\J	.	.	.	.	.
8FF\J	.	.	.	.	.
*>etc2	*>etc2	*>etc2	*>etc2	*>etc2	*>etc2
=13	=13	=13	=13	=13	=13
4.r	4f\	(16a\LL	(16cc\LL	(16cc\LL	.
.	.	16b-\J	16dd-\J	16dd-\J	.
.	.	8cc\)	8ee-\)	8ee-\)	.
.	8B-/	8b-\J	8dd-\J	8dd-\J	.
=14	=14	=14	=14	=14	=14
4.r	4f\	(8a/L	(8cc\L	(8cc\L	.
.	.	8g/)	8b-\)	8b-\)	.
.	8f\	8a/J	8cc\J	8cc\J	.
=15	=15	=15	=15	=15	=15
4.r	4f\	(16a\LL	(16cc\LL	(16cc\LL	.
.	.	16b-\J	16dd-\J	16dd-\J	.
.	.	8cc\)	8ee-\)	8ee-\)	.
.	8B-/	8b-\J	8dd-\J	8dd-\J	.
=16	=16	=16	=16	=16	=16
4.r	4f\	(8a/L	(8cc\L	(8cc\L	.
.	.	8g/)	8b-\)	8b-\)	.
.	8f\	8a/J	8cc\J	8cc\J	.
=17	=17	=17	=17	=17	=17
8B-\L	8dd\L	16bb-\LL	16bb-\LL	16bb-\LL	.
.	.	16b-\JJ	16b-\JJ	16b-\JJ	.
8B-\	8dd\	4bb-\	4bb-\	4bb-\	.
8B-\J	8dd\J	.	.	.	.
=18	=18	=18	=18	=18	=18
8A\L	8cc\L	16bb-\LL	16bb-\LL	16bb-\LL	.
.	.	16b-\JJ	16b-\JJ	16b-\JJ	.
8A\	8cc\	4bb-\	4bb-\	4bb-\	.
8A\J	8cc\J	.	.	.	.
=19	=19	=19	=19	=19	=19
8G\L	8b-\L	16bb-\LL	16bb-\LL	16bb-\LL	.
.	.	16b-\JJ	16b-\JJ	16b-\JJ	.
8G\	8b-\	4bb-\	4bb-\	4bb-\	.
8G\J	8b-\J	.	.	.	.
=20	=20	=20	=20	=20	=20
8F\L	8a\L	16bb-\LL	16bb-\LL	16bb-\LL	.
.	.	16b-\JJ	16b-\JJ	16b-\JJ	.
8F\	8a\	4bb-\	4bb-\	4bb-\	.
8F\J	8a\J	.	.	.	.
=21	=21	=21	=21	=21	=21
8E-\L	8g\L	16bb-\LL	16bb-\LL	16bb-\LL	.
.	.	16b-\JJ	16b-\JJ	16b-\JJ	.
8E-\	8g\	4bb-\	4bb-\	4bb-\	.
8E-\J	8g\J	.	.	.	.
=22	=22	=22	=22	=22	=22
8B-\L	8f\L	8dd\L	8dd\L	8dd\L	.
8E-\	8cc\	8ee-\	8ee-\	8ee-\	6 5
8F\J	8a\J	8cc\J	8cc\J	8cc\J	.
=23	=23	=23	=23	=23	=23
4BB-/	4b-\	4b-\	4b-\	4b-\	.
8r	8r	8r	8r	8r	.
=24	=24	=24	=24	=24	=24
8B-\L	8dd\L	16bb-\LL	16bb-\LL	16bb-\LL	.
.	.	16b-\JJ	16b-\JJ	16b-\JJ	.
8B-\	8dd\	4bb-\	4bb-\	4bb-\	.
8B-\J	8dd\J	.	.	.	.
=25	=25	=25	=25	=25	=25
8A\L	8cc\L	16bb-\LL	16bb-\LL	16bb-\LL	.
.	.	16b-\JJ	16b-\JJ	16b-\JJ	.
8A\	8cc\	4bb-\	4bb-\	4bb-\	.
8A\J	8cc\J	.	.	.	.
=26	=26	=26	=26	=26	=26
8G\L	8b-\L	16bb-\LL	16bb-\LL	16bb-\LL	.
.	.	16b-\JJ	16b-\JJ	16b-\JJ	.
8G\	8b-\	4bb-\	4bb-\	4bb-\	.
8G\J	8b-\J	.	.	.	.
=27	=27	=27	=27	=27	=27
8F\L	8a\L	16bb-\LL	16bb-\LL	16bb-\LL	.
.	.	16b-\JJ	16b-\JJ	16b-\JJ	.
8F\	8a\	4bb-\	4bb-\	4bb-\	.
8F\J	8a\J	.	.	.	.
=28	=28	=28	=28	=28	=28
8E-\L	8g\L	16bb-\LL	16bb-\LL	16bb-\LL	.
.	.	16b-\JJ	16b-\JJ	16b-\JJ	.
8E-\	8g\	4bb-\	4bb-\	4bb-\	.
8E-\J	8g\J	.	.	.	.
=29	=29	=29	=29	=29	=29
8B-\L	8f\L	8dd\L	8dd\L	8dd\L	.
8E-\	8cc\	8ee-\	8ee-\	8ee-\	6 5
8F\J	8a\J	8cc\J	8cc\J	8cc\J	.
=30	=30	=30	=30	=30	=30
4BB-/	4b-\	4b-\	4b-\	(16b-\LL	.
.	.	.	.	16dd\	.
.	.	.	.	16ff\)	.
.	.	.	.	16bb-\	.
8r	8r	8r	8r	16bb-\	.
.	.	.	.	16bb-\JJ	.
=31	=31	=31	=31	=31	=31
4BB-/	4.r	4.r	4.r	(16b-\LL	.
.	.	.	.	16dd\	.
.	.	.	.	16ff\)	.
.	.	.	.	16bb-\	.
8r	.	.	.	16bb-\	.
.	.	.	.	16bb-\JJ	.
=32	=32	=32	=32	=32	=32
4F\	4.r	4.r	4.r	(16a\LL	.
.	.	.	.	16cc\	.
.	.	.	.	16ff\)	.
.	.	.	.	16aa\	.
8r	.	.	.	16aa\	.
.	.	.	.	16aa\JJ	.
=33	=33	=33	=33	=33	=33
4F\	4.r	4.r	4.r	(16a\LL	.
.	.	.	.	16cc\	.
.	.	.	.	16ff\)	.
.	.	.	.	16aa\	.
8r	.	.	.	16aa\	.
.	.	.	.	16aa\JJ	.
=34	=34	=34	=34	=34	=34
4E-\	4.r	4.r	4.r	(16g\LL	.
.	.	.	.	16b-\	.
.	.	.	.	16ee-\)	.
.	.	.	.	16gg\	.
8r	.	.	.	16gg\	.
.	.	.	.	16gg\JJ	.
=35	=35	=35	=35	=35	=35
4E-\	4.r	4.r	4.r	(16g\LL	.
.	.	.	.	16b-\	.
.	.	.	.	16ee-\)	.
.	.	.	.	16gg\	.
8r	.	.	.	16gg\	.
.	.	.	.	16gg\JJ	.
*>S36	*>S36	*>S36	*>S36	*>S36	*>S36
!! Selfridge-Field edition.
=36	=36	=36	=36	=36	=36
4D\	4.r	4.r	4.r	(16f\LL	.
.	.	.	.	16a\	.
.	.	.	.	16dd\)	.
.	.	.	.	16ff\	.
8r	.	.	.	16ff\	.
.	.	.	.	16ff\JJ	.
=37	=37	=37	=37	=37	=37
4D\	4.r	4.r	4.r	(16f\LL	.
.	.	.	.	16a\	.
.	.	.	.	16dd\)	.
.	.	.	.	16ff\	.
8r	.	.	.	16ff\	.
.	.	.	.	16ff\JJ	.
*>D36	*>D36	*>D36	*>D36	*>D36	*>D36
!! Dresden manuscript.
=36	=36	=36	=36	=36	=36
4D\	4.r	4.r	4.r	(16f\LL	.
.	.	.	.	16b-\	.
.	.	.	.	16dd\)	.
.	.	.	.	16ff\	.
8r	.	.	.	16ff\	.
.	.	.	.	16ff\JJ	.
=37	=37	=37	=37	=37	=37
4D\	4.r	4.r	4.r	(16f\LL	.
.	.	.	.	16b-\	.
.	.	.	.	16dd\)	.
.	.	.	.	16ff\	.
8r	.	.	.	16ff\	.
.	.	.	.	16ff\JJ	.
*>etc3	*>etc3	*>etc3	*>etc3	*>etc3	*>etc3
=38	=38	=38	=38	=38	=38
4G\	4.r	4.r	4.r	(16e-\LL	6
.	.	.	.	16g\	.
.	.	.	.	16b-\)	.
.	.	.	.	16ee-\	.
8r	.	.	.	16ee-\	.
.	.	.	.	16ee-\JJ	.
=39	=39	=39	=39	=39	=39
4G\	4.r	4.r	4.r	(16e-\LL	6
.	.	.	.	16g\	.
.	.	.	.	16b-\)	.
.	.	.	.	16ee-\	.
8r	.	.	.	16ee-\	.
.	.	.	.	16ee-\JJ	.
=40	=40	=40	=40	=40	=40
8F\L	4.r	4.r	4.r	8a/L	.
16F\L	.	.	.	8f/J	.
16E-\	.	.	.	.	.
16D\	.	.	.	8r	.
16C\JJ	.	.	.	.	.
=41	=41	=41	=41	=41	=41
4BB-/	4.r	4.r	4.r	(16dd\LL	.
.	.	.	.	16ff\	.
.	.	.	.	16bb-\)	.
.	.	.	.	16ddd\	.
8r	.	.	.	16ddd\	.
.	.	.	.	16ddd\JJ	.
=42	=42	=42	=42	=42	=42
4B-\	4.r	4.r	4.r	(16dd\LL	.
.	.	.	.	16ff\	.
.	.	.	.	16bb-\)	.
.	.	.	.	16ddd\	.
8r	.	.	.	16ddd\	.
.	.	.	.	16ddd\JJ	.
=43	=43	=43	=43	=43	=43
4G\	4.r	4.r	4.r	(16ee-\LL	6 5
.	.	.	.	16gg\	.
.	.	.	.	16bb-\)	.
.	.	.	.	16ddd\	.
8r	.	.	.	16ddd\	.
.	.	.	.	16ddd\JJ	.
=44	=44	=44	=44	=44	=44
4G\	4.r	4.r	4.r	(16ee-\LL	6 5
.	.	.	.	16gg\	.
.	.	.	.	16bb-\)	.
.	.	.	.	16ddd\	.
8r	.	.	.	16ddd\	.
.	.	.	.	16ddd\JJ	.
=45	=45	=45	=45	=45	=45
4G\	4.r	4.r	4.r	(16ee-\LL	6
.	.	.	.	16gg\	.
.	.	.	.	16bb-\)	.
.	.	.	.	16eee-\	.
8r	.	.	.	16eee-\	.
.	.	.	.	16eee-\JJ	.
=46	=46	=46	=46	=46	=46
4G\	4.r	4.r	4.r	(16ee-\LL	6
.	.	.	.	16gg\	.
.	.	.	.	16bb-\)	.
.	.	.	.	16eee-\	.
8r	.	.	.	16eee-\	.
.	.	.	.	16eee-\JJ	.
=47	=47	=47	=47	=47	=47
4A\	4.r	4.r	4.r	(16ff\LL	6 5
.	.	.	.	16aa\	.
.	.	.	.	16ccc\)	.
.	.	.	.	16eee-\	.
8r	.	.	.	16eee-\	.
.	.	.	.	16eee-\JJ	.
=48	=48	=48	=48	=48	=48
4A\	4.r	4.r	4.r	(16ff\LL	6 5
.	.	.	.	16aa\	.
.	.	.	.	16ccc\)	.
.	.	.	.	16eee-\	.
8r	.	.	.	16eee-\	.
.	.	.	.	16eee-\JJ	.
=49	=49	=49	=49	=49	=49
4A\	4.r	4.r	4.r	(16ff\LL	6
.	.	.	.	16aa\	.
.	.	.	.	16ccc\)	.
.	.	.	.	16fff\	.
8r	.	.	.	16fff\	.
.	.	.	.	16fff\JJ	.
=50	=50	=50	=50	=50	=50
4A\	4.r	4.r	4.r	(16ff\LL	6
.	.	.	.	16aa\	.
.	.	.	.	16ccc\)	.
.	.	.	.	16fff\	.
8r	.	.	.	16fff\	.
.	.	.	.	16fff\JJ	.
=51	=51	=51	=51	=51	=51
4B-\	4.r	4.r	4.r	(16ff\LL	5
.	.	.	.	16bb-\	.
.	.	.	.	16ddd\)	.
.	.	.	.	16fff\	.
8r	.	.	.	16fff\	.
.	.	.	.	16fff\JJ	.
=52	=52	=52	=52	=52	=52
4B-\	4.r	4.r	4.r	(16ff\LL	.
.	.	.	.	16bb-\	.
.	.	.	.	16ddd\)	.
.	.	.	.	16fff\	.
8r	.	.	.	16fff\	.
.	.	.	.	16fff\JJ	.
=53	=53	=53	=53	=53	=53
4A\	4.r	4.r	4.r	(16ff\LL	6
.	.	.	.	16aa\	.
.	.	.	.	16ccc\)	.
.	.	.	.	16fff\	.
8r	.	.	.	16fff\	.
.	.	.	.	16fff\JJ	.
=54	=54	=54	=54	=54	=54
4A\	4.r	4.r	4.r	(16ff\LL	6
.	.	.	.	16aa\	.
.	.	.	.	16ccc\)	.
.	.	.	.	16fff\	.
8r	.	.	.	16fff\	.
.	.	.	.	16fff\JJ	.
=55	=55	=55	=55	=55	=55
4B-\	4.r	4.r	4.r	(16ff\LL	.
.	.	.	.	16bb-\	.
.	.	.	.	16ddd\)	.
.	.	.	.	16fff\	.
8r	.	.	.	16fff\	.
.	.	.	.	16fff\JJ	.
=56	=56	=56	=56	=56	=56
4B-\	4.r	4.r	4.r	(16ff\LL	.
.	.	.	.	16bb-\	.
.	.	.	.	16ddd\)	.
.	.	.	.	16fff\	.
8r	.	.	.	16fff\	.
.	.	.	.	16fff\JJ	.
=57	=57	=57	=57	=57	=57
8A\L	4.r	4.r	4.r	8ccc\L	6
16c\L	.	.	.	8ff\J	.
16B-\	.	.	.	.	.
16A\	.	.	.	8r	6
16G\JJ	.	.	.	.	.
=58	=58	=58	=58	=58	=58
4F\	4.r	4.r	4.r	8.ff/L	.
.	.	.	.	16een/kk	.
8B-\	.	.	.	8dd/J	.
*	*	*	*	*back-4.	*
!	!	!	!	!4a\	!
!	!	!	!	!8r	!
*	*	*	*	*endback	*
=59	=59	=59	=59	=59	=59
4c\	4.r	4.r	4.r	8.cc/L	n
.	.	.	.	16b-/kk	.
8F\	.	.	.	8a/J	.
*	*	*	*	*back-4.	*
!	!	!	!	!4en\	!
!	!	!	!	!8f\	!
*	*	*	*	*endback	*
=60	=60	=60	=60	=60	=60
8A\L	4.r	4.r	4.r	8f/L	6
8B-\	.	.	.	8f/	6 5
8c\J	.	.	.	8en/J	n
*	*	*	*	*back-4.	*
!	!	!	!	!8A\L	!
!	!	!	!	!8B-\	!
!	!	!	!	!8c\J	!
*	*	*	*	*endback	*
=61	=61	=61	=61	=61	=61
8F\L	4.r	4.r	4.r	4a/ 4f/	.
16c\L	.	.	.	.	.
16B-\	.	.	.	.	.
*	*	*	*	*back-4	*
!	!	!	!	!4c\	!
*	*	*	*	*endback	*
16A\	.	.	.	8r	.
16G\JJ	.	.	.	.	.
=62	=62	=62	=62	=62	=62
4F\	4.r	4.r	4.r	8.ff/L	.
.	.	.	.	16een/kk	.
8B-\	.	.	.	8dd/J	.
*	*	*	*	*back-4.	*
!	!	!	!	!4a\	!
!	!	!	!	!8r	!
*	*	*	*	*endback	*
=63	=63	=63	=63	=63	=63
4c\	4.r	4.r	4.r	8.cc/L	n
.	.	.	.	16b-/kk	.
8F\	.	.	.	8a/J	.
*	*	*	*	*back-4.	*
!	!	!	!	!4en\	!
!	!	!	!	!8f\	!
*	*	*	*	*endback	*
=64	=64	=64	=64	=64	=64
8A\L	4.r	4.r	4.r	8f/L	6
8B-\	.	.	.	8f/	6 5
8c\J	.	.	.	8en/J	n
*	*	*	*	*back-4.	*
!	!	!	!	!8A\L	!
!	!	!	!	!8B-\	!
!	!	!	!	!8c\J	!
*	*	*	*	*endback	*
=65	=65	=65	=65	=65	=65
8F\L	8c/L	(16f\LL	(16f\LL	(16f\LL	.
.	.	16a\J	16a\J	16a\J	.
16A\L	16c/L	8cc\)	8cc\)	8cc\)	6
16G\J	16B-/J	.	.	.	.
8F\J	8A/J	8ff\J	8ff\J	8ff\J	.
=66	=66	=66	=66	=66	=66
8FF/L	8A/L	8cc/L	8cc/L	8cc/L	.
16AA/L	16c/L	8f/	8f/	8f/	6
16GG/J	16B-/J	.	.	.	.
8FF/J	8A/J	8c/J	8c/J	8c/J	.
=67	=67	=67	=67	=67	=67
8F\L	8c/L	(16f\LL	(16f\LL	(16f\LL	.
.	.	16a\J	16a\J	16a\J	.
16A\L	16c/L	8cc\)	8cc\)	8cc\)	6
16G\J	16B-/J	.	.	.	.
8F\J	8A/J	8ff\J	8ff\J	8ff\J	.
=68	=68	=68	=68	=68	=68
8FF/L	8A/L	8cc/L	8cc/L	8cc/L	.
16AA/L	16c/L	8f/	8f/	8f/	6
16GG/J	16B-/J	.	.	.	.
8FF/J	8A/J	8c/J	8c/J	8c/J	.
=69	=69	=69	=69	=69	=69
8c\L	8cc\L	8cc/L	8cc/L	8cc/L	.
16B-\L	16b-\L	16b-/L	16b-/L	16b-/L	.
16A\	16a\	16a/	16a/	16a/	.
16G\	16g\	16g/	16g/	16g/	.
16F\JJ	16f\JJ	16f/JJ	16f/JJ	16f/JJ	.
=70	=70	=70	=70	=70	=70
8En\L	8en\L	8en/L	8en/L	8en/L	6
8D\	8d\	8d/	8d/	8d/	.
8C\J	8c\J	8c/J	8c/J	8c/J	n
=71	=71	=71	=71	=71	=71
8G\L	8d\L	(16g\LL	(16g\LL	(16g\LL	.
.	.	16b-\J	16b-\J	16b-\J	.
16B-\L	16d\L	8dd\)	8dd\)	8dd\)	6
16A\J	16c\J	.	.	.	.
8G\J	8B-\J	8gg\J	8gg\J	8gg\J	.
=72	=72	=72	=72	=72	=72
8GG/L	8B-/L	8dd/L	8dd/L	8dd/L	.
16BB-/L	16d/L	8g/	8g/	8g/	6
16AA/J	16c/J	.	.	.	.
8GG/J	8B-/J	8d/J	8d/J	8d/J	.
=73	=73	=73	=73	=73	=73
8G\L	8d\L	(16g\LL	(16g\LL	(16g\LL	.
.	.	16b-\J	16b-\J	16b-\J	.
16B-\L	16d\L	8dd\)	8dd\)	8dd\)	6
16A\J	16c\J	.	.	.	.
8G\J	8B-\J	8gg\J	8gg\J	8gg\J	.
=74	=74	=74	=74	=74	=74
8GG/L	8B-/L	8dd/L	8dd/L	8dd/L	.
16BB-/L	16d/L	8g/	8g/	8g/	6
16AA/J	16c/J	.	.	.	.
8GG/J	8B-/J	8d/J	8d/J	8d/J	.
=75	=75	=75	=75	=75	=75
8d\L	8dd\L	8dd\L	8dd\L	8dd\L	#
16c\L	16cc\L	16cc\L	16cc\L	16cc\L	.
16B-\	16b-\	16b-\	16b-\	16b-\	.
16A\	16a\	16a\	16a\	16a\	.
16G\JJ	16g\JJ	16g\JJ	16g\JJ	16g\JJ	.
=76	=76	=76	=76	=76	=76
8F#\L	8f#\L	8f#/L	8f#/L	8f#/L	6
8En\	8en\	8en/	8en/	8en/	.
8D\J	8d\J	8d/J	8d/J	8d/J	#
=77	=77	=77	=77	=77	=77
8G\L	8b-\L	16gg\LL	16gg\LL	16gg\LL	.
.	.	16g\JJ	16g\JJ	16g\JJ	.
8G\	8b-\	4gg\	4gg\	4gg\	.
8G\J	8b-\J	.	.	.	.
=78	=78	=78	=78	=78	=78
8F\L	8a\L	16g/LL	16g/LL	16g/LL	.
.	.	16G/JJ	16G/JJ	16G/JJ	.
8F\	8a\	4g/	4g/	4g/	.
8F\J	8a\J	.	.	.	.
=79	=79	=79	=79	=79	=79
8E-\L	8g\L	16gg\LL	16gg\LL	16gg\LL	.
.	.	16g\JJ	16g\JJ	16g\JJ	.
8E-\	8g\	4gg\	4gg\	4gg\	.
8E-\J	8g\J	.	.	.	.
=80	=80	=80	=80	=80	=80
8D\L	8f\L	16g/LL	16g/LL	16g/LL	.
.	.	16G/JJ	16G/JJ	16G/JJ	.
8D\	8f\	4g/	4g/	4g/	.
8D\J	8f\J	.	.	.	.
=81	=81	=81	=81	=81	=81
8C/L	8e-\L	16gg\LL	16gg\LL	16gg\LL	.
.	.	16g\JJ	16g\JJ	16g\JJ	.
8C/	8e-\	4gg\	4gg\	4gg\	.
8C/J	8e-\J	.	.	.	.
=82	=82	=82	=82	=82	=82
8BB-/L	8d\L	8gg\L	8gg\L	8gg\L	6
8C/	8e-\	8aa\	8aa\	8aa\	6 5
8D/J	8d\J	8ff#\J	8ff#\J	8ff#\J	#
=83	=83	=83	=83	=83	=83
4GG/	4B-/	4gg\	4gg\	16gg\LL	.
.	.	.	.	16gg\	.
.	.	.	.	16dd\	.
.	.	.	.	16gg\	.
8r	8r	8r	8r	16b-\	.
.	.	.	.	16dd\JJ	.
=84	=84	=84	=84	=84	=84
4GG/	4.r	4.r	4.r	16g/LL	7
.	.	.	.	16b-/	.
.	.	.	.	16d/	.
.	.	.	.	16g/	.
8r	.	.	.	16B-/	.
.	.	.	.	16d/JJ	.
=85	=85	=85	=85	=85	=85
4GG/	4.r	4.r	4.r	4G/	.
8r	.	.	.	8ff\	.
=86	=86	=86	=86	=86	=86
16GG/LL	4.r	4.r	4.r	(8bb-\L	.
16AA/J	.	.	.	.	.
8BB-/	.	.	.	8aa\	6
8C/J	.	.	.	8gg\J)	.
=87	=87	=87	=87	=87	=87
4D\	4.r	4.r	4.r	4ggT\	5 4
8DD/	.	.	.	8ff#\	#
=88	=88	=88	=88	=88	=88
4GG/	4.r	4.r	4.r	16r	.
.	.	.	.	16gg\LL	.
.	.	.	.	16dd\	.
.	.	.	.	16gg\	.
8r	.	.	.	16b-\	.
.	.	.	.	16dd\JJ	.
=89	=89	=89	=89	=89	=89
4GG/	4.r	4.r	4.r	16g/LL	.
.	.	.	.	16b-/	.
.	.	.	.	16d/	.
.	.	.	.	16g/	.
8r	.	.	.	16B-/	.
.	.	.	.	16d/JJ	.
=90	=90	=90	=90	=90	=90
4GG/	4.r	4.r	4.r	4G/	.
8r	.	.	.	8bb-\	.
=91	=91	=91	=91	=91	=91
16GG/LL	4.r	4.r	4.r	(8ddd\L	.
16AA/J	.	.	.	.	.
8BB-/	.	.	.	8ccc\	6
8C/J	.	.	.	8bb-\J)	.
=92	=92	=92	=92	=92	=92
4D\	4.r	4.r	4.r	4bb-T\	6 4
8DD/	.	.	.	8aa\	5 #
=93	=93	=93	=93	=93	=93
4D\	4.r	4.r	4.r	16r	#
.	.	.	.	16ddd\LL	.
.	.	.	.	16aa\	.
.	.	.	.	16ddd\	.
8r	.	.	.	16ff#\	.
.	.	.	.	16aa\JJ	.
=94	=94	=94	=94	=94	=94
4F#\	4.r	4.r	4.r	(16dd\LL	6
.	.	.	.	16een\	.
.	.	.	.	16ff#\)	.
.	.	.	.	16gg\	.
8r	.	.	.	16aa\	.
.	.	.	.	16bb-\JJ	.
=95	=95	=95	=95	=95	=95
4D\	4.r	4.r	4.r	(8ccc\L	7 #
.	.	.	.	8bb-\	.
8r	.	.	.	8aa\J)	.
=96	=96	=96	=96	=96	=96
4G\	4.r	4.r	4.r	16bb-\LL	.
.	.	.	.	16gg\	.
.	.	.	.	16dd\	.
.	.	.	.	16gg\	.
8r	.	.	.	16b-\	.
.	.	.	.	16dd\JJ	.
=97	=97	=97	=97	=97	=97
4BBn/	4.r	4.r	4.r	(16g\LL	6
.	.	.	.	16a\	.
.	.	.	.	16bn\)	.
.	.	.	.	16cc\	.
8r	.	.	.	16dd\	.
.	.	.	.	16ee-\JJ	.
=98	=98	=98	=98	=98	=98
4GG/	4.r	4.r	4.r	(8ff\L	7 n
.	.	.	.	8ee-\	.
8r	.	.	.	8dd\J)	.
=99	=99	=99	=99	=99	=99
4C/	4.r	4.r	4.r	(8ee-\L	.
.	.	.	.	8dd\	.
8E-\	.	.	.	8cc\J)	6
=100	=100	=100	=100	=100	=100
4F\	4.r	4.r	4.r	(8dd-\L	b6
.	.	.	.	8cc\	.
8G\	.	.	.	8bn\J)	n
=101	=101	=101	=101	=101	=101
8E-\L	4.r	4.r	4.r	16cc\LL	6
.	.	.	.	16dd\	.
8D\	.	.	.	16ee-\	.
.	.	.	.	16ff\J	.
8C\J	.	.	.	8gg\J	.
=102	=102	=102	=102	=102	=102
8E-\L	4.r	4.r	4.r	8cc\L	6
8F\	.	.	.	8dd\	6 5
8G\J	.	.	.	8bn\J	n
=103	=103	=103	=103	=103	=103
8C/L	8g\L	(16cc\LL	(16cc\LL	(16cc\LL	.
.	.	16ee-\J	16ee-\J	16ee-\J	.
16E-/L	16g\L	8gg\)	8gg\)	8gg\)	6
16D/J	16f\J	.	.	.	.
8C/J	8e-\J	8ccc\J	8ccc\J	8ccc\J	.
=104	=104	=104	=104	=104	=104
8C/L	8e-\L	8cc/L	8cc/L	8cc/L	.
16E-/L	16g\L	8g/	8g/	8g/	6
16D/J	16f\J	.	.	.	.
8C/J	8e-\J	8c/J	8c/J	8c/J	.
=105	=105	=105	=105	=105	=105
8C/L	8g\L	(16cc\LL	(16cc\LL	(16cc\LL	.
.	.	16ee-\J	16ee-\J	16ee-\J	.
16E-/L	16g\L	8gg\)	8gg\)	8gg\)	6
16D/J	16f\J	.	.	.	.
8C/J	8e-\J	8ccc\J	8ccc\J	8ccc\J	.
=106	=106	=106	=106	=106	=106
8C/L	8e-\L	8cc/L	8cc/L	8cc/L	.
16E-/L	16g\L	8g/	8g/	8g/	6
16D/J	16f\J	.	.	.	.
8C/J	8e-\J	8c/J	8c/J	8c/J	.
=107	=107	=107	=107	=107	=107
8c\L	8cc\L	8cc/L	8cc/L	8cc/L	.
16B-\L	16b-\L	16b-/L	16b-/L	16b-/L	.
16A-\	16a-\	16a-/	16a-/	16a-/	.
16G\	16g\	16g/	16g/	16g/	.
16F\JJ	16f\JJ	16f/JJ	16f/JJ	16f/JJ	.
=108	=108	=108	=108	=108	=108
8E-\L	8e-\L	8e-/L	8e-/L	8e-/L	6
8D\	8d\	8d/	8d/	8d/	6
8C\J	8c\J	8c/J	8c/J	8c/J	.
=109	=109	=109	=109	=109	=109
8C/L	8g\L	(16cc\LL	(16cc\LL	(16cc\LL	.
.	.	16ee-\J	16ee-\J	16ee-\J	.
16E-/L	16g\L	8gg\)	8gg\)	8gg\)	6
16D/J	16f\J	.	.	.	.
8C/J	8e-\J	8ccc\J	8ccc\J	8ccc\J	.
=110	=110	=110	=110	=110	=110
8C/L	8e-\L	8cc/L	8cc/L	8cc/L	.
16E-/L	16g\L	8g/	8g/	8g/	6
16D/J	16f\J	.	.	.	.
8C/J	8e-\J	8c/J	8c/J	8c/J	.
=111	=111	=111	=111	=111	=111
8C/L	8g\L	(16cc\LL	(16cc\LL	(16cc\LL	.
.	.	16ee-\J	16ee-\J	16ee-\J	.
16E-/L	16g\L	8gg\)	8gg\)	8gg\)	6
16D/J	16f\J	.	.	.	.
8C/J	8e-\J	8ccc\J	8ccc\J	8ccc\J	.
*>S112	*>S112	*>S112	*>S112	*>S112	*>S112
!! Selfridge-Field edition.
=112	=112	=112	=112	=112	=112
8C/L	8e-\L	8cc/L	8cc/L	8cc/L	.
16E-/L	16g\L	8g/	8g/	8g/	6
16D/J	16f\J	.	.	.	.
8C/J	8e-\J	8c/J	8c/J	8c/J	.
*>T112	*>T112	*>T112	*>T112	*>T112	*>T112
!! Turin autograph:  measure 112 omitted.
*>etc4	*>etc4	*>etc4	*>etc4	*>etc4	*>etc4
=113	=113	=113	=113	=113	=113
8G\L	8g\L	8g/L	8g/L	8g/L	.
16F\L	16f\L	16f/L	16f/L	16f/L	.
16E-\	16e-\	16e-/	16e-/	16e-/	.
16D\	16d\	16d/	16d/	16d/	.
16C\JJ	16c\JJ	16c/JJ	16c/JJ	16c/JJ	.
=114	=114	=114	=114	=114	=114
4GG/	4G/	4G/	4G/	4G/	.
8r	8r	8r	8r	8r	.
=115	=115	=115	=115	=115	=115
4.r	4c\	(16cc\LL	(16ee-\LL	(16ee-\LL	.
.	.	16dd\J	16ff\J	16ff\J	.
.	.	8ee-\)	8gg\)	8gg\)	.
.	8G/	8dd\J	8ff\J	8ff\J	.
=116	=116	=116	=116	=116	=116
4.r	4c\	(8cc\L	(8ee-\L	(8ee-\L	.
.	.	8bn\)	8dd\)	8dd\)	.
.	8C/	8cc\J	8ee-\J	8ee-\J	.
=117	=117	=117	=117	=117	=117
4.r	4c\	(16cc\LL	(16ee-\LL	(16ee-\LL	.
.	.	16dd\J	16ff\J	16ff\J	.
.	.	8ee-\)	8gg\)	8gg\)	.
.	8G/	8dd\J	8ff\J	8ff\J	.
=118	=118	=118	=118	=118	=118
4.r	4c\	(8cc\L	(8ee-\L	(8ee-\L	.
.	.	8bn\)	8dd\)	8dd\)	.
.	8C/	8cc\J	8ee-\J	8ee-\J	.
=119	=119	=119	=119	=119	=119
8C/L	8c/L	8cc\L	8ee-\L	8ee-\L	.
8FF/	8F/	8dd\	8ff\	8ff\	6 5
8GG/J	8G/J	8bn\J	8dd\J	8dd\J	n
=120	=120	=120	=120	=120	=120
8c\L	4c\	4cc\	4cc\	8cc\L	.
8E-\	.	.	.	(8.ccT\	6
8C\J	8r	8r	8r	.	.
.	.	.	.	32bn\LL	.
.	.	.	.	32cc\JJJ)	.
=121	=121	=121	=121	=121	=121
8G/L	4.r	4.r	4.r	8dd\L	.
8BBn/	.	.	.	(8.ddt\	6
8GG/J	.	.	.	.	.
.	.	.	.	32cc\LL	.
.	.	.	.	32dd\JJJ)	.
=122	=122	=122	=122	=122	=122
8c\L	4.r	4.r	4.r	8ee-\L	.
8E-\	.	.	.	(8.ee-T\	6
8C\J	.	.	.	.	.
.	.	.	.	32dd\LL	.
.	.	.	.	32ee-\JJJ)	.
=123	=123	=123	=123	=123	=123
8d\L	4.r	4.r	4.r	8ff\L	.
8Bn\	.	.	.	(8.ffT\	6
8G\J	.	.	.	.	.
.	.	.	.	32ee-\LL	.
.	.	.	.	32ff\JJJ)	.
=124	=124	=124	=124	=124	=124
4c\	4.r	4.r	4.r	8gg\L	.
.	.	.	.	8ee-\	.
8C/	.	.	.	8cc\J	.
=125	=125	=125	=125	=125	=125
8B-\L	4.r	4.r	4.r	8gg\L	6
8G\	.	.	.	(8.ggT\	.
8GG\J	.	.	.	.	.
.	.	.	.	32ff#\LL	.
.	.	.	.	32gg\JJJ)	.
=126	=126	=126	=126	=126	=126
8F#/L	4.r	4.r	4.r	8aa\L	6
8AA/	.	.	.	(8.aat\	.
8FF#/J	.	.	.	.	.
.	.	.	.	32gg\LL	.
.	.	.	.	32aa\JJJ)	.
=127	=127	=127	=127	=127	=127
8G/L	4.r	4.r	4.r	8bb-\L	.
8BB-/	.	.	.	(8.bb-T\	6
8GG/J	.	.	.	.	.
.	.	.	.	32aa\LL	.
.	.	.	.	32bb-\JJJ)	.
=128	=128	=128	=128	=128	=128
8A\L	4.r	4.r	4.r	8ccc\L	.
8F#\	.	.	.	(8.cccT\	6
8D\J	.	.	.	.	.
.	.	.	.	32bb-\LL	.
.	.	.	.	32ccc\JJJ)	.
=129	=129	=129	=129	=129	=129
8B-\L	4.r	4.r	4.r	8ddd\L	6
8G\	.	.	.	8bb-\	.
8GG\J	.	.	.	8gg\J	.
=130	=130	=130	=130	=130	=130
4.r	4.r	8g/L	8g/L	(24bb-\LL	.
.	.	.	.	24ccc\	.
.	.	.	.	24ddd\JJ)	.
.	.	8g/	8g/	(24bb-\LL	.
.	.	.	.	24ccc\	.
.	.	.	.	24ddd\JJ)	.
.	.	8g/J	8g/J	(24bb-\LL	.
.	.	.	.	24ccc\	.
.	.	.	.	24ddd\JJ)	.
=131	=131	=131	=131	=131	=131
4.r	4.r	8c/L	8c/L	(24ee-\LL	.
.	.	.	.	24ff\	.
.	.	.	.	24gg\JJ)	.
.	.	8c/	8c/	(24ee-\LL	.
.	.	.	.	24ff\	.
.	.	.	.	24gg\JJ)	.
.	.	8c/J	8c/J	(24ee-\LL	.
.	.	.	.	24ff\	.
.	.	.	.	24gg\JJ)	.
=132	=132	=132	=132	=132	=132
4.r	4.r	8f/L	8f/L	(24aa\LL	.
.	.	.	.	24bb-\	.
.	.	.	.	24ccc\JJ)	.
.	.	8f/	8f/	(24aa\LL	.
.	.	.	.	24bb-\	.
.	.	.	.	24ccc\JJ)	.
.	.	8f/J	8f/J	(24aa\LL	.
.	.	.	.	24bb-\	.
.	.	.	.	24ccc\JJ)	.
=133	=133	=133	=133	=133	=133
4.r	4.r	8B-/L	8B-/L	(24dd\LL	.
.	.	.	.	24ee-\	.
.	.	.	.	24ff\JJ)	.
.	.	8B-/	8B-/	(24dd\LL	.
.	.	.	.	24ee-\	.
.	.	.	.	24ff\JJ)	.
.	.	8B-/J	8B-/J	(24dd\LL	.
.	.	.	.	24ee-\	.
.	.	.	.	24ff\JJ)	.
=134	=134	=134	=134	=134	=134
4.r	4.r	8e-/L	8e-/L	(24gg\LL	.
.	.	.	.	24aa\	.
.	.	.	.	24bb-\JJ)	.
.	.	8e-/	8e-/	(24gg\LL	.
.	.	.	.	24aa\	.
.	.	.	.	24bb-\JJ)	.
.	.	8e-/J	8e-/J	(24gg\LL	.
.	.	.	.	24aa\	.
.	.	.	.	24bb-\JJ)	.
=135	=135	=135	=135	=135	=135
4.r	4.r	8A/L	8A/L	(24cc\LL	.
.	.	.	.	24dd\	.
.	.	.	.	24ee-\JJ)	.
.	.	8A/	8A/	(24cc\LL	.
.	.	.	.	24dd\	.
.	.	.	.	24ee-\JJ)	.
.	.	8A/J	8A/J	(24cc\LL	.
.	.	.	.	24dd\	.
.	.	.	.	24ee-\JJ)	.
=136	=136	=136	=136	=136	=136
4.r	4.r	8d/L	8d/L	(24ff\LL	.
.	.	.	.	24gg\	.
.	.	.	.	24aa\JJ)	.
.	.	8d/	8d/	(24ff\LL	.
.	.	.	.	24gg\	.
.	.	.	.	24aa\JJ)	.
.	.	8d/J	8d/J	(24ff\LL	.
.	.	.	.	24gg\	.
.	.	.	.	24aa\JJ)	.
=137	=137	=137	=137	=137	=137
4.r	4.r	8g/L	8g/L	(24b-\LL	.
.	.	.	.	24cc\	.
.	.	.	.	24dd\JJ)	.
.	.	8g/	8g/	(24b-\LL	.
.	.	.	.	24cc\	.
.	.	.	.	24dd\JJ)	.
.	.	8g/J	8g/J	(24b-\LL	.
.	.	.	.	24cc\	.
.	.	.	.	24dd\JJ)	.
=138	=138	=138	=138	=138	=138
4.r	4.r	8c/L	8c/L	(24e-/LL	.
.	.	.	.	24f/	.
.	.	.	.	24g/JJ)	.
.	.	8c/	8c/	(24e-/LL	.
.	.	.	.	24f/	.
.	.	.	.	24g/JJ)	.
.	.	8c/J	8c/J	(24e-/LL	.
.	.	.	.	24f/	.
.	.	.	.	24g/JJ)	.
=139	=139	=139	=139	=139	=139
4.r	4.r	8a/L	8a/L	(24cc\LL	.
.	.	.	.	24dd\	.
.	.	.	.	24ee-\JJ)	.
.	.	8a/	8a/	(24cc\LL	.
.	.	.	.	24dd\	.
.	.	.	.	24ee-\JJ)	.
.	.	8a/J	8a/J	(24cc\LL	.
.	.	.	.	24dd\	.
.	.	.	.	24ee-\JJ)	.
=140	=140	=140	=140	=140	=140
4.r	4.r	8d/L	8d/L	(24f/LL	.
.	.	.	.	24g/	.
.	.	.	.	24a/JJ)	.
.	.	8d/	8d/	(24f/LL	.
.	.	.	.	24g/	.
.	.	.	.	24a/JJ)	.
.	.	8d/J	8d/J	(24f/LL	.
.	.	.	.	24g/	.
.	.	.	.	24a/JJ)	.
=141	=141	=141	=141	=141	=141
4.r	4.r	8b-\L	8b-\L	(24dd\LL	.
.	.	.	.	24ee-\	.
.	.	.	.	24ff\JJ)	.
.	.	8b-\	8b-\	(24dd\LL	.
.	.	.	.	24ee-\	.
.	.	.	.	24ff\JJ)	.
.	.	8b-\J	8b-\J	(24dd\LL	.
.	.	.	.	24ee-\	.
.	.	.	.	24ff\JJ)	.
=142	=142	=142	=142	=142	=142
4.r	4.r	8e-/L	8e-/L	(24g/LL	.
.	.	.	.	24a/	.
.	.	.	.	24b-/JJ)	.
.	.	8e-/	8e-/	(24g/LL	.
.	.	.	.	24a/	.
.	.	.	.	24b-/JJ)	.
.	.	8e-/J	8e-/J	(24g/LL	.
.	.	.	.	24a/	.
.	.	.	.	24b-/JJ)	.
=143	=143	=143	=143	=143	=143
4.r	4.r	8cc\L	8cc\L	(24ee-\LL	.
.	.	.	.	24ff\	.
.	.	.	.	24gg\JJ)	.
.	.	8cc\	8cc\	(24ee-\LL	.
.	.	.	.	24ff\	.
.	.	.	.	24gg\JJ)	.
.	.	8cc\J	8cc\J	(24ee-\LL	.
.	.	.	.	24ff\	.
.	.	.	.	24gg\JJ)	.
*>S144	*>S144	*>S144	*>S144	*>S144	*>S144
!! Selfridge-Field edition.
=144	=144	=144	=144	=144	=144
16F\LL	4.r	4f/	4f/	4a/	.
16G\	.	.	.	.	.
16A\	.	.	.	.	6
16B-\	.	.	.	.	.
16c\	.	8r	8r	8r	.
16A\JJ	.	.	.	.	.
*>A144	*>A144	*>A144	*>A144	*>A144	*>A144
!! Amsterdam print.
=144	=144	=144	=144	=144	=144
16F\LL	4.r	4f/	4dd/	4a/	.
16G\	.	.	.	.	.
16A\	.	.	.	.	6
16B-\	.	.	.	.	.
16c\	.	8r	8r	8r	.
16A\JJ	.	.	.	.	.
*>etc5	*>etc5	*>etc5	*>etc5	*>etc5	*>etc5
=145	=145	=145	=145	=145	=145
4F\	4.r	4.r	4.r	(16f\LL	7
.	.	.	.	16a\J	.
.	.	.	.	8cc\)	.
8r	.	.	.	8ee-\J	.
=146	=146	=146	=146	=146	=146
4F\	4.r	4.r	4.r	(16a\LL	7
.	.	.	.	16cc\J	.
.	.	.	.	8ee-\)	.
8r	.	.	.	8aa\J	.
=147	=147	=147	=147	=147	=147
4BB-/	4.r	4.r	4.r	16bb-\LL	.
.	.	.	.	16aa\	.
.	.	.	.	16gg\	.
.	.	.	.	16ff\	.
8r	.	.	.	16ee-\	.
.	.	.	.	16dd\JJ	.
=148	=148	=148	=148	=148	=148
4.r	4.r	4.r	4.r	16cc/LL	.
.	.	.	.	16b-/	.
.	.	.	.	16a/	.
.	.	.	.	16g/	.
.	.	.	.	16f/	.
.	.	.	.	16e-/JJ	.
=149	=149	=149	=149	=149	=149
16BB-/LL	4.r	4.r	4.r	8d/L	.
16C/J	.	.	.	.	.
8D/	.	.	.	8B-/J	6
8C/J	.	.	.	8r	.
=150	=150	=150	=150	=150	=150
4BB-/	4.r	4.r	4.r	(8ddd-\L	b
.	.	.	.	8ccc\)	.
8r	.	.	.	8bb-\J	.
=151	=151	=151	=151	=151	=151
4E-\	4.r	4.r	4.r	(8ccc-\L	b6
.	.	.	.	8bb-\)	.
8F\	.	.	.	8aa\J	.
=152	=152	=152	=152	=152	=152
4D-\	4.r	4.r	4.r	(8bb-\L	6
.	.	.	.	8ff\)	.
8BB-/	.	.	.	8ddd-\J	b
=153	=153	=153	=153	=153	=153
8E-/L	4.r	4.r	4.r	16cccn\LL	n6 5
.	.	.	.	16bb-\J	.
8F/	.	.	.	8.aat\	4
8FF/J	.	.	.	.	3
.	.	.	.	16bb-\Jk	.
=154	=154	=154	=154	=154	=154
16BB-/LL	4.r	4.r	4.r	4bb-\	.
16C/J	.	.	.	.	.
8D-/	.	.	.	.	.
8C/J	.	.	.	8r	.
=155	=155	=155	=155	=155	=155
4BB-/	4.r	4.r	4.r	(8dd-\L	b
.	.	.	.	8cc\)	.
8r	.	.	.	8b-\J	.
=156	=156	=156	=156	=156	=156
4E-\	4.r	4.r	4.r	(8cc-\L	b6
.	.	.	.	8b-\)	.
8F\	.	.	.	8a\J	.
=157	=157	=157	=157	=157	=157
4D-\	4.r	4.r	4.r	8b-\L	6
.	.	.	.	8f\	.
8BB-/	.	.	.	8dd-\J	b
=158	=158	=158	=158	=158	=158
8E-/L	4.r	4.r	4.r	16ccn\LL	n6 5
.	.	.	.	16b-\J	.
8F/	.	.	.	8.at\	4
8FF/J	.	.	.	.	3
.	.	.	.	16b-\Jk	.
=159	=159	=159	=159	=159	=159
8B-\L	8f\L	(16b-\LL	(16b-\LL	(16b-\LL	.
.	.	16dd\J	16dd\J	16dd\J	.
16d\L	16f\L	8ff\)	8ff\)	8ff\)	6
16c\J	16e-\J	.	.	.	.
8B-\J	8d\J	8bb-\J	8bb-\J	8bb-\J	.
=160	=160	=160	=160	=160	=160
8BB-/L	8d\L	8b-/L	8b-/L	8b-/L	.
16D/L	16f\L	8f/	8f/	8f/	6
16C/J	16e-\J	.	.	.	.
8BB-/J	8d\J	8B-/J	8B-/J	8B-/J	.
=161	=161	=161	=161	=161	=161
8B-\L	8f\L	(16b-\LL	(16b-\LL	(16b-\LL	.
.	.	16dd\J	16dd\J	16dd\J	.
16d\L	16f\L	8ff\)	8ff\)	8ff\)	6
16c\J	16e-\J	.	.	.	.
8B-\J	8d\J	8bb-\J	8bb-\J	8bb-\J	.
=162	=162	=162	=162	=162	=162
8BB-/L	8d\L	8b-/L	8b-/L	8b-/L	.
16D/L	16f\L	8f/	8f/	8f/	6
16C/J	16e-\J	.	.	.	.
8BB-/J	8d\J	8B-/J	8B-/J	8B-/J	.
=163	=163	=163	=163	=163	=163
8B-\L	8dd\L	16bb-\LL	16bb-\LL	16bb-\LL	.
.	.	16b-\JJ	16b-\JJ	16b-\JJ	.
8B-\	8dd\	4bb-\	4bb-\	4bb-\	.
8B-\J	8dd\J	.	.	.	.
=164	=164	=164	=164	=164	=164
8A\L	8cc\L	16bb-\LL	16bb-\LL	16bb-\LL	.
.	.	16b-\JJ	16b-\JJ	16b-\JJ	.
8A\	8cc\	4bb-\	4bb-\	4bb-\	.
8A\J	8cc\J	.	.	.	.
=165	=165	=165	=165	=165	=165
8G\L	8b-\L	16bb-\LL	16bb-\LL	16bb-\LL	.
.	.	16b-\JJ	16b-\JJ	16b-\JJ	.
8G\	8b-\	4bb-\	4bb-\	4bb-\	.
8G\J	8b-\J	.	.	.	.
=166	=166	=166	=166	=166	=166
8F\L	8a\L	16bb-\LL	16bb-\LL	16bb-\LL	.
.	.	16b-\JJ	16b-\JJ	16b-\JJ	.
8F\	8a\	4bb-\	4bb-\	4bb-\	.
8F\J	8a\J	.	.	.	.
=167	=167	=167	=167	=167	=167
8E-\L	8g\L	16bb-\LL	16bb-\LL	16bb-\LL	.
.	.	16b-\JJ	16b-\JJ	16b-\JJ	.
8E-\	8g\	4bb-\	4bb-\	4bb-\	.
8E-\J	8g\J	.	.	.	.
=168	=168	=168	=168	=168	=168
8B-\L	8f\L	8dd\L	8dd\L	8dd\L	.
8E-\	8g\	8ee-\	8ee-\	8ee-\	6 5
8F\J	8a\J	8cc\J	8cc\J	8cc\J	.
=169	=169	=169	=169	=169	=169
8B-\L	8b-\L	8b-/L	8b-/L	8b-/L	.
16A\L	16a\L	16a/L	16a/L	16a/L	.
16G\	16g\	16g/	16g/	16g/	.
16F\	16f\	16f/	16f/	16f/	.
16E-\JJ	16e-\JJ	16e-/JJ	16e-/JJ	16e-/JJ	.
=170	=170	=170	=170	=170	=170
8D\L	8d\L	8d/L	8d/L	8d/L	6
8BB-\	8B-\	8B-/	8B-/	8B-/	.
8F\J	8f\J	8f/J	8f/J	8f/J	.
=171	=171	=171	=171	=171	=171
8E-\L	8e-\L	8e-/L	8e-/L	8e-/L	6 5
8C\	8c\	8c/	8c/	8c/	.
8F\J	8f\J	8f/J	8f/J	8f/J	.
=172	=172	=172	=172	=172	=172
4BB-/	4B-/	4B-/	4B-/	4B-/	.
8F\	8f\	8f/	8f/	8f/	.
=173	=173	=173	=173	=173	=173
8E-\L	8e-\L	8e-/L	8e-/L	8e-/L	6 5
8C\	8c\	8c/	8c/	8c/	7
8F\J	8f\J	8f/J	8f/J	8f/J	.
=174	=174	=174	=174	=174	=174
4.BB-/	4.B-/	4.B-/	4.B-/	4.B-/	.
==|!	==|!	==|!	==|!	==|!	==|!
*-	*-	*-	*-	*-	*-
!!!CDT: 1678/3/4/-1741/7/28
!!!OCY: Italia
!!!ODE: Count Wenzeslaus von Morzin of Bohemia; Count Wenceslas of Morzin
!!!ODT: 1725///
!!!OPC: Venezia; Venice
!!!AGN: concerto
!!!AST: baroque
!!!AMT: simple triple
!!!PPR: Michel-Charles Le Ce`ne
!!!PC#: Le Cene No. 521
!!!PDT: 1725///
!!!PPP: Amsterdam
!!!SCT: RV 362
!!!SMA1: The cooperation of the following libraries is gratefully acknowledged:
!!!SMA2: Saechsische Landesbibliothek, Dresden; Biblioteca Nazionale
!!!SMA3: Universitaria, Turin; Henry Watson Music Library, Manchester.
!!!YOR: New York: Dover Publications, Inc. 1995
!!!AIN: cello cemba viola violn
!!!EEV: 1.0
!!!RDT: 1994/5/9/
!!!YER: 1996/10/31/
!!!YEP: Center for Computer Assisted Research in the Humanities
!!!YEN: United States of America
!!!EFL: 3/3
!!!ENC: Edmund Correia, Jr.
!!!EED: Eleanor Selfridge-Field
